X:503
T: Shanyaodan
N: C1922
O: China, Hebei Zhaoxian
S: IV, 40]
R: Xiaodiao]
M: 2/4
L: 1/16
K: E
B2BBB2B2 | B2E2F4 | B2E2F4
B2BBB2B2 | B2E2F4 | B2E2F4
G2B2G2B2 | e2c2B4 | G2B2G2B2 | G4B4
E2E2E2C2 | B,4z4
G4e2e2 | c2e2c2B2 | B4E4
F2G2F2E2 | C2E2C2E2 | F2E2F4
B4e2e2 | c2e2c2B2 | G4B4 | E2EEE2C2 | B,8

